X: 7
T: LONDON BRIDGE
%R: hornpipe
B: Jean White "100 Popular Hornpipes, Reels, Jigs and Country Dances", Boston 1880 p.4
F: http://www.loc.gov/resource/sm1880.09124.0#seq-1
Z: 2014 John Chambers <jc:trillian.mit.edu>
M: C|
L: 1/8
K: E
% - - - - - - - - - - - - - - - - - - - - - - - - - - - - -
c>d |\
e2B>G E2G>B | e2g>e f2a>f | g>ed>e c>de>f | g>ea>f e>dc>B |
e2B>G E2G>B | e2g>e f2a>f | g>ed>e c>ed>f | g2[e2B2] [e2B2] :|
|: e>f |\
g>ed>e c>eB>e | A>eG>e F>GE>G | A>GA>B c>de>f | g>ea>f e>dc>B |
c>fa>f B>eg>e | A>cf>A G>Be>B | a>gf>e B>ed>f | g2[e2B2] [e2B2] H:|
% - - - - - - - - - - - - - - - - - - - - - - - - - - - - -

%%sep 1 1 500
%%sep 1 1 500
